X:1
T:HWV1A2N26 - Svenerò chi fa guerra a questo cor
T:HWV1A2N26 - Svenerò chi fa guerra a questo cor
T:Act 2 aria in D Major for tenor as Osman From MuseScore 2 C00@EJM For more Händel, see http;//handel.ejmaurath,com/
T:Händel, Georg Friedrich
T:Feustking, Friedrich Christian
T:Sequenced by Edward James Maurath
T:Sequenced by Edward James Maurath
C:Händel, Georg Friedrich
Z:Feustking, Friedrich Christian
Z:Sequenced by Edward James Maurath
%%score [ 1 2 ] [ 3 { 4 | 5 } ]
L:1/8
Q:1/4=54
M:4/4
K:D
V:1 tenor nm="Tenor as\nOsman" snm="TEN"
V:2 bass nm="Violoncello\nContinuo" snm="VCL"
V:3 bass-8 nm="Violone\nContinuo" snm="VNE"
V:4 treble nm="Cembalo\nContinuo" snm="VNE"
V:5 bass 
V:1
"^[no marking]" z8 | z8 | z F,/D,/ A,C/A,/ D z z2 | z3 D/A,/ ED/E/ F/D/E/F/ | %4
w: ||sve- ne- rò, sve- ne- rò,-|sve- ne- rò chi fa guer- ra,a ques- to|
 B,E/F/ G/E/F/G/ C2 z A,/A,/ | A,/4B,/4A,/B,/C/ D/4E/4D/E/F/ B,/4C/4B,/C/D/ E/C/D/E/ | %6
w: cor,- chi fa guer- raa ques- to cor chi fa|guer- * * * * * * * * * * * * * * * * * *|
 A,/4B,/4A,/B,/C/ D/B,/C/D/ ^A,/E,/F,/G,/ A,/B,/C/D/ | EF CB,/A,/ A,2 z2 | z2 FE DCB,C | %9
w: * * * * * * * * * * ra, chi fa guer- ra, chi fa|guer- ra a ques- to cor,|sin cha * non mi ca-|
 F,2 z3 D/D/ GC/C/ | F/B,/B,/4C/4B,/ E/^A,/A,/4B,/4A,/ B,/4C/4B,/C/4D/4C/ D/4E/4D/E/4F/4E/ | F8- | %12
w: drà frem- e rà, frem- e-|ra,- * * * * * * * * * * * * * * * * * * * * *||
 FD/F/ C/F/D/F/ ^A,F,/F,/ B,C/D/ | EF/G/ DC/B,/ B,2 z E/E/ | A,D/F/ B,E/G/ CB,/A,/ DE/F/ | %15
w: * sin cha pie non mi ca- drà fre- me- rà ge- lo|si- a nel su- o fu- ror, fre- me-|rà, fre- me * ge- lo- si- a nel su- o fu-|
 E2 z D/A,/ D2 z D/A,/ | E2 z E/E/ F/4G/4F/E/A,/ D/4E/4D/C/F,/ | %17
w: ror. sve- ner ò sve- ne-|rò, sve- ne ò, _ _ _ _ _ _ _ _ _|
 B,/4C/4B,/A,/4B,/4A,/ G,/4A,/4G,/F,/4G,/4F,/ E,C/A,/ DC/A,/ | D2 z2 z4 |] %19
w: _ _ _ _ _ _ _ _ _ _ _ _ _ sve- ne- rò, sve- ne-|rò.|
V:2
 z/"^Hidden continuo by\nEdward J. Maurath" D/C/4D/4C/ B,/B,/A,/4B,/4A,/ G,/G,/F,/4G,/4F,/ E,/E,/D,/4E,/4D,/ | %1
 A,/A,/G,/4A,/4G,/ F,/F,/E,/4F,/4E,/ D,G,A,A,, | D,2 z2 z/ D/C/4D/4C/ B,/B,/A,/4B,/4A,/ | %3
 G,/G,/F,/4G,/4F,/ E,/E,/D,/4E,/4D,/ A,2 z D, | G,2 z E, A,/A,/G,/4A,/4G,/ F,/F,/E,/4F,/4E,/ | %5
 D,/D,/C,/4D,/4C,/ B,,/B,,/A,,/4B,,/4A,,/ G,,/G,,/F,,/4G,,/4F,,/ E,/E,/D,/C,/ | %6
 F,/E,/D,/C,/ B,,/D,/C,/B,,/ E,/E,/D,/4E,/4D,/ C,/C,/B,,/4C,/4B,,/ | %7
 C,D,E,E,, A,,/A,/G,/4A,/4G,/ F,/F,/E,/4F,/4E,/ | D,2 z2 B,/B,/4A,/4B,/A,/ G,/G,/F,/E,/ | %9
 F,/F,/4E,/4F,/E,/ D,/D,/4C,/4D,/C,/ B,,/B,/B,/4C/4B,/ E,/A,/A,/4B,/4A,/ | %10
 D,/G,/G,/4A,/4G,/ C,/F,/F,/4G,/4F,/ D,^A,,B,,G,, | %11
 F,,/B,/B,/4C/4B,/ ^A,/B,/B,/4C/4B,/ F,/B,/B,/4C/4B,/ A,/B,/B,/4C/4B,/ | %12
 F,/B,/B,/4C/4B,/ ^A,/B,/B,/4C/4B,/ F,2 z/ D,/E,/F,/ | %13
 G,E,F,F,, B,,/B,/A,/4B,/4A,/ G,/G,/F,/4G,/4E,/ | %14
 F,/F,/E,/D,/ G,/G,/F,/E,/ A,/A,/G,/4A,/4G,/ F,/F,/E,/D,/ | %15
 A,/A,/G,/4A,/4G,/ F,/F,/E,/4F,/4E,/ D,/D,/C,/4D,/4C,/ B,,/B,,/A,,/4B,,/4A,,/ | %16
 G,,/E,/F,/G,/ A,/A,,/B,,/C,/ D,C,B,,A,, | G,F,E,D, A,/A,/G,/4A,/4G,/ F,/F,/E,/4F,/4E,/ | %18
 D,/D,/C,/4D,/4C,/ B,,/G,,/A,,/A,,/ D,2 z2 |] %19
V:3
 z/ D/ C/4 D/4 C/ B,/ B,/ A,/4 B,/4 A,/ G,/ G,/ F,/4 G,/4 F,/ E,/ E,/ D,/4 E,/4 D,/ | %1
 A,/ A,/ G,/4 A,/4 G,/ F,/ F,/ E,/4 F,/4 E,/ D, G, A, A,, | %2
 D,2 z2 z/ D/ C/4 D/4 C/ B,/ B,/ A,/4 B,/4 A,/ | %3
 G,/ G,/ F,/4 G,/4 F,/ E,/ E,/ D,/4 E,/4 D,/ A,2 z D, | %4
 G,2 z E, A,/ A,/ G,/4 A,/4 G,/ F,/ F,/ E,/4 F,/4 E,/ | %5
 D,/ D,/ C,/4 D,/4 C,/ B,,/ B,,/ A,,/4 B,,/4 A,,/ G,,/ G,,/ F,,/4 G,,/4 F,,/ E,/ E,/ D,/ C,/ | %6
 F,/ E,/ D,/ C,/ B,,/ D,/ C,/ B,,/ E,/ E,/ D,/4 E,/4 D,/ C,/ C,/ B,,/4 C,/4 B,,/ | %7
 C, D, E, E,, A,,/ A,/ G,/4 A,/4 G,/ F,/ F,/ E,/4 F,/4 E,/ | %8
 D,2 z2 B,/ B,/4 A,/4 B,/ A,/ G,/ G,/ F,/ E,/ | %9
 F,/ F,/4 E,/4 F,/ E,/ D,/ D,/4 C,/4 D,/ C,/ B,,/ B,/ B,/4 C/4 B,/ E,/ A,/ A,/4 B,/4 A,/ | %10
 D,/ G,/ G,/4 A,/4 G,/ C,/ F,/ F,/4 G,/4 F,/ D, ^A,, B,, G,, | %11
 F,,/ B,/ B,/4 C/4 B,/ ^A,/ B,/ B,/4 C/4 B,/ F,/ B,/ B,/4 C/4 B,/ A,/ B,/ B,/4 C/4 B,/ | %12
 F,/ B,/ B,/4 C/4 B,/ ^A,/ B,/ B,/4 C/4 B,/ F,2 z/ D,/ E,/ F,/ | %13
 G, E, F, F,, B,,/ B,/ A,/4 B,/4 A,/ G,/ G,/ F,/4 G,/4 E,/ | %14
 F,/ F,/ E,/ D,/ G,/ G,/ F,/ E,/ A,/ A,/ G,/4 A,/4 G,/ F,/ F,/ E,/ D,/ | %15
 A,/ A,/ G,/4 A,/4 G,/ F,/ F,/ E,/4 F,/4 E,/ D,/ D,/ C,/4 D,/4 C,/ B,,/ B,,/ A,,/4 B,,/4 A,,/ | %16
 G,,/ E,/ F,/ G,/ A,/ A,,/ B,,/ C,/ D, C, B,, A,, | %17
 G, F, E, D, A,/ A,/ G,/4 A,/4 G,/ F,/ F,/ E,/4 F,/4 E,/ | %18
 D,/ D,/ C,/4 D,/4 C,/ B,,/ G,,/ A,,/ A,,/ D,2 z2 |] %19
V:4
 !arpeggio![DFAd] z !arpeggio![DFB]/ z/ z !arpeggio![B,EG] z !arpeggio![G,B,E] z | %1
 !arpeggio![CEA] z !arpeggio![A,DF] z !arpeggio![F,A,D] z !arpeggio![CEA] [EGAc] | %2
 !arpeggio![FAd]2 z2 !arpeggio![DFAd] z !arpeggio![DFB]/ z/ z | %3
 !arpeggio![B,EG] z !arpeggio![G,B,E] z !arpeggio![CEA] z z2 | %4
 !arpeggio![B,DG]2 z2 !arpeggio![CEA] z !arpeggio![A,DF] z | %5
 [F,A,D] z [DFB] z [B,EG] z !arpeggio![G,B,E] z | %6
 [A,DF] z !arpeggio![DFB] z !arpeggio![^A,CF] z !arpeggio![A,CF] z | %7
 !arpeggio![CEG] z !arpeggio![CEG] z !arpeggio![CEA] z !arpeggio![A,DF] z | %8
 !arpeggio![F,A,D]2 z2 [DF]/ z/ z [B,D]/ z/ z | %9
 [^A,CF]/ z/ z [F,B,D]/ z/ z !arpeggio![DFB] z !arpeggio![G,CE] z | %10
 !arpeggio![F,B,D] z [CEG] z D ^A, B, G, | !arpeggio![B,DF] z z2 [^A,CF]/ z/ z [CEF^A]/ z/ z | %12
 [^A,CF]/ z/ z [CF^A]/ z/ z !arpeggio![A,CEF] z [B,DF]/ z/ z | %13
 !arpeggio![B,EG] z !arpeggio![B,DF] z !arpeggio![DFB] z !arpeggio![B,EG] z | %14
 !arpeggio![A,=CF] z !arpeggio![B,EG] z !arpeggio![^CEG] z !arpeggio![A,DF] z | %15
 !arpeggio![CEA] z !arpeggio![A,DF] z !arpeggio![F,B,D] z !arpeggio![B,D] z | %16
 !arpeggio![A,CEG] z !arpeggio![CEA] z D C B, A, | G F E D !arpeggio![CEA] z !arpeggio![A,DF] z | %18
 !arpeggio![F,A,D] z !arpeggio![G,B,D] z !arpeggio![F,A,D]2 z2 |] %19
V:5
 z/ D/ C/4 D/4 C/ B,/ B,/ A,/4 B,/4 A,/ G,/ G,/ F,/4 G,/4 F,/ E,/ E,/ D,/4 E,/4 D,/ | %1
 A,/ A,/ G,/4 A,/4 G,/ F,/ F,/ E,/4 F,/4 E,/ D, G, A, A,, | %2
 D,2 z2 z/ D/ C/4 D/4 C/ B,/ B,/ A,/4 B,/4 A,/ | %3
 G,/ G,/ F,/4 G,/4 F,/ E,/ E,/ D,/4 E,/4 D,/ A,2 z [D,F,A,D] | %4
 G,2 z [E,A,CE] A,/ A,/ G,/4 A,/4 G,/ F,/ F,/ E,/4 F,/4 E,/ | %5
 D,/ D,/ C,/4 D,/4 C,/ B,,/ B,,/ A,,/4 B,,/4 A,,/ G,,/ G,,/ F,,/4 G,,/4 F,,/ E,/ E,/ D,/ C,/ | %6
 F,/ E,/ D,/ C,/ B,,/ D,/ C,/ B,,/ E,/ E,/ D,/4 E,/4 D,/ C,/ C,/ B,,/4 C,/4 B,,/ | %7
 C, D, E, E,, A,,/ A,/ G,/4 A,/4 G,/ F,/ F,/ E,/4 F,/4 E,/ | %8
 D,2 z2 B,/ B,/4 A,/4 B,/ A,/ G,/ G,/ F,/ E,/ | %9
 F,/ F,/4 E,/4 F,/ E,/ D,/ D,/4 C,/4 D,/ C,/ B,,/ B,/ B,/4 C/4 B,/ E,/ A,/ A,/4 B,/4 A,/ | %10
 D,/ G,/ G,/4 A,/4 G,/ C,/ F,/ F,/4 G,/4 F,/ D, ^A,, B,, G,, | %11
 F,,/ B,/ B,/4 C/4 B,/ ^A,/ B,/ B,/4 C/4 B,/ F,/ B,/ B,/4 C/4 B,/ A,/ B,/ B,/4 C/4 B,/ | %12
 F,/ B,/ B,/4 C/4 B,/ ^A,/ B,/ B,/4 C/4 B,/ F,2 z/ D,/ E,/ F,/ | %13
 G, E, F, F,, B,,/ B,/ A,/4 B,/4 A,/ G,/ G,/ F,/4 G,/4 E,/ | %14
 F,/ F,/ E,/ D,/ G,/ G,/ F,/ E,/ A,/ A,/ G,/4 A,/4 G,/ F,/ F,/ E,/ D,/ | %15
 A,/ A,/ G,/4 A,/4 G,/ F,/ F,/ E,/4 F,/4 E,/ D,/ D,/ C,/4 D,/4 C,/ B,,/ B,,/ A,,/4 B,,/4 A,,/ | %16
 G,,/ E,/ F,/ G,/ A,/ A,,/ B,,/ C,/ D, C, B,, A,, | %17
 G, F, E, D, A,/ A,/ G,/4 A,/4 G,/ F,/ F,/ E,/4 F,/4 E,/ | %18
 D,/ D,/ C,/4 D,/4 C,/ B,,/ G,,/ A,,/ A,,/ D,2 z2 |] %19

